X:1
T:He Will Always Be Precious
T:He Will Always Be Precious
T:McDuffie Weams
T:James Rowe, 1914
T:Public Domain Courtesy of the Cyber Hymnal™
T:Public Domain Courtesy of the Cyber Hymnal™
C:McDuffie Weams
Z:Public Domain
Z:Courtesy of the Cyber Hymnal™
%%score ( 1 2 ) ( 3 4 )
L:1/8
Q:1/4=145
M:6/4
K:F
V:1 treble 
V:2 treble 
V:3 bass 
V:4 bass 
V:1
 [CF][CG] | [FA]2 [FA]2 [FA]2 [FA]2 [FA]2 [FA]2 | F2 F2 [EG]2 [FA]4 [FA][FB] | %3
w: 1.~I am|cling- ing to Je- sus, my|won- der- ful friend, Who has|
w: 2.~I will|sing of His mer- cy and|glo- ri- ous love, Till I|
w: 3.~In that|beau- ti- ful coun- try of|love and de- light, Where the|
 [Fc]2 [Fc]2 [Fd]2 [Fc]2 [FA]2 [FA]2 | [FA]2 [CG]2 [DG]2 [EG]4 F[FG] | %5
w: prom- ised to guide ev- en|un- to the end; He will|
w: praise and a- dore Him with|an- gels a- bove; And the|
w: crown will be giv- en when|faith ends in sight; In my|
 [FA]2 [FA]2 [FA]2 [FA]4 [FA][FA] | [FB]2 [F=B]2 [Fc]2 [Fd]4 [Fd][Fd] | %7
w: keep me, I know, al- ways|hap- py and free, And will|
w: world my great love for my|Sav- ior shall see, He will|
w: man- sion of glo- ry and|rest by the sea He will|
 [Fc]2 [Fc]2 [Fd]2 [Fc]2 [EB]2 [EA]2 | [EA] [FA]3 [EG]2 [CF]4 ||"^Refrain" [FA][FB] | %10
w: al- ways be grow- ing more|pre- cious to me.||
w: al- ways be grow- ing more|pre- cious to me.|He will|
w: al- ways be grow- ing more|pre- cious to me.||
 [Fc]2 [Fc]2 [Fd]2 [Fc]2 [Fc]2 [FA]2 | c6- [Ac]4 F[FG] | [FA]2 [FA]2 [FA]2 [Ac]2 [Ac]2 [FA]2 | %13
w: |||
w: al- ways be pre- cious to|me, He will al-|ways be pre- cious to me;|
w: |||
 G6- [EG]4 [FA][FB] | [Fc]2 [Ec]2 [Gc]2 [Fc]4 [FA][FA] | [FB]2 [F=B]2 [Fc]2 [Fd]4 [Fd][Fd] | %16
w: |||
w: More and more I|* will cling, More and more|work and sing, He will al-|
w: |||
 [Fc]2 [Fc]2 [EB]2 [FA] [FA]3 [EG]2 | [CF]6- [CF]4 |] %18
w: ||
w: ways be pre- cious to me.||
w: ||
V:2
 x2 | x12 | F2 F2 x8 | x12 | x10 F x | x12 | x12 | x12 | x10 || x2 | x12 | (F4 G2 F) x5 | x12 | %13
 E4 D2 x6 | x12 | x12 | x12 | x10 |] %18
V:3
 [F,A,][F,B,] | [F,C]2 [F,C]2 [F,C]2 [F,C]2 [F,C]2 [F,C]2 | [A,C]2 [A,C]2 [G,C]2 [F,C]4 F,[F,G,] | %3
w: ||* * * * to *|
 [F,A,]2 [F,A,]2 [F,B,]2 [F,A,]2 [F,C]2 [F,C]2 | [F,C]2 [E,C]2 [D,=B,]2 [C,C]4 [F,A,][F,B,] | %5
w: ||
 [F,C]2 [F,C]2 [F,C]2 [F,C]4 [F,C][_E,C] | [D,B,]2 [_D,^G,]2 [C,A,]2 [B,,B,]4 [B,,B,][B,,B,] | %7
w: ||
 [C,A,]2 [C,A,]2 [C,B,]2 [C,A,]2 [C,C]2 [C,C]2 | [C,C] [C,C]3 [C,B,]2 [F,,F,A,]4 || F,[F,G,] | %10
w: ||me, *|
 [F,A,]2 [F,A,]2 [F,B,]2 [F,A,]2 [F,A,]2 [F,C]2 | [F,A,]4 [C,B,]2 [F,C]4 [F,A,][F,B,] | %12
w: |* to me; * *|
 [F,C]2 [F,C]2 [F,C]2 [F,F]2 [F,F]2 [F,C]2 | [C,C]4 [G,,=B,]2 [C,C]4 F,[F,G,] | %14
w: ||
 [F,A,]2 [C,G,]2 [E,B,]2 [F,A,]4 [F,C][_E,C] | [_D,B,]2 [D,^G,]2 [C,A,]2 [B,,B,]4 [B,,B,][B,,B,] | %16
w: ||
 [C,A,]2 [C,A,]2 [C,C]2 [C,C] [C,C]3 [C,B,]2 | [F,,F,A,]6- [F,,F,A,]4 |] %18
w: ||
V:4
 x2 | x12 | x10 F, x | x12 | x12 | x12 | x12 | x12 | x10 || F, x | x12 | x12 | x12 | x10 F, x | %14
 x12 | x12 | x12 | x10 |] %18

